X:115
T:Allistrum's Polka
R:polka
H:Also in D #120
H:Cf. first two parts of Allistrum's March, march#19
D:Martin O'Connor: The Connachtman's Rambles
Z:id:hn-polka-115
M:2/4
L:1/8
K:G
BA A>A|BG G>G|BA g>a|ge ed|BA A>A|BG G>G|BA gg|e2 ed:|
|:Bg g>a|ba ab|g2 g>a|ge ed|Bg g>a|ba ab|ga/g/ fd|e2 ed:|

